icons-rebrand/svg/enter-room-filled.svg

<svg xmlns="http://www.w3.org/2000/svg" width="32" height="32" viewBox="0 0 32 32" fill="none"><path d="M11 2C8.23858 2 6 4.23858 6 7V25C6 27.7614 8.23858 30 11 30H21C23.7614 30 26 27.7614 26 25V24.6495C25.9541 24.6128 25.9101 24.5734 25.8681 24.5314L24.8796 23.5428L24.8681 23.5314L18.4687 17.1313C18.3201 16.9827 18.2022 16.8064 18.1218 16.6123C18.0414 16.4182 18 16.2101 18 16C18 15.7899 18.0414 15.5818 18.1218 15.3877C18.2022 15.1936 18.3201 15.0173 18.4687 14.8687L24.8681 8.46859L24.8796 8.45717L25.8681 7.46859C25.9101 7.42663 25.9541 7.38724 26 7.35052V7C26 4.23858 23.7614 2 21 2H11Z M23.4137 14.9996H29.0006C29.2658 14.9996 29.5201 15.1049 29.7077 15.2924C29.8952 15.48 30.0006 15.7343 30.0006 15.9995C30.0006 16.2647 29.8952 16.5191 29.7077 16.7066C29.5201 16.8942 29.2658 16.9995 29.0006 16.9995H23.4137L25.7067 19.2925C25.8942 19.48 25.9995 19.7344 25.9995 19.9996C25.9995 20.2647 25.8942 20.5191 25.7067 20.7066C25.5191 20.8941 25.2648 20.9994 24.9996 20.9994C24.7344 20.9994 24.4801 20.8941 24.2926 20.7066L20.2926 16.7066C20.1997 16.6138 20.126 16.5035 20.0758 16.3822C20.0255 16.2609 19.9996 16.1309 19.9996 15.9996C19.9996 15.8682 20.0255 15.7382 20.0758 15.6169C20.126 15.4956 20.1997 15.3854 20.2926 15.2925L24.2926 11.2925C24.4801 11.105 24.7344 10.9997 24.9996 10.9997C25.2648 10.9997 25.5191 11.105 25.7067 11.2925C25.8942 11.48 25.9995 11.7344 25.9995 11.9996C25.9995 12.2647 25.8942 12.5191 25.7067 12.7066L23.4137 14.9996Z"/></svg>

<svg width="32" height="32" fill="none" xmlns="http://www.w3.org/2000/svg">
  <path d="M11 2a5 5 0 0 0-5 5v18a5 5 0 0 0 5 5h10a5 5 0 0 0 5-5v-.35a1.596 1.596 0 0 1-.132-.119l-.988-.988-.012-.012-6.4-6.4a1.6 1.6 0 0 1 0-2.262l6.4-6.4.012-.012.988-.988c.042-.042.086-.082.132-.118V7a5 5 0 0 0-5-5H11Z" fill="#0F0F0F"/>
  <path d="M23.414 15H29a1 1 0 1 1 0 2h-5.587l2.293 2.293a1 1 0 0 1-1.414 1.414l-4-4a.998.998 0 0 1 0-1.415l4-4a1 1 0 0 1 1.414 1.415L23.414 15Z" fill="#0F0F0F"/>
</svg>
